X:73
T:MSSMARE- The Man has got his Mare again
S:Oswald's CPC, bk. 12, c 1760
Q:1/4=120
L:1/4
M:3/4
K:D
B|A3/4F/4AB|d2e|f(a/f/)(e/d/)|(fe) (d/4e/4f/)|G3/4F/4AB|\
d3/2 e/ f3/4a/4|b3/4a/4f~e|d2::f3/4a/4|\
b3/2 a/ (f/4e/4d/)|~ed(e/4f/4)a/|b3/2 a/ (b/4a/4)f/|\
fe(d3/4B/4)|d3/2 c/ (~B/A/)|(gf)(e/4f/4)a/|b3/4a/4 f~e|d2|]

